X:1
T:Mourdun Hill
T:Mourdun Hill
T:Alexander Walker
C:Alexander Walker
L:1/8
M:2/2
K:Emin
V:1 treble 
V:1
 D | B,2 BA BcdB | DEFE DB,A,D | B,2 BA BcdB | AFDF E/E/EE :| f | e2 ge bege | fdeB AFDd | %8
 e2 ge befd | BGAF E3 d | e2 ge bege | fdeB AFDf | egfe dBAF | GBAF E/E/EE || %14

